assets/icons/network/wireless/_.svg

<?xml version="1.0" encoding="UTF-8" standalone="no"?>
<svg viewBox="0 0 24 24" height="24" width="24" version="1.1" id="svg4" sodipodi:docname="wireless.svg" inkscape:version="1.1 (ce6663b3b7, 2021-05-25)"
   xmlns:inkscape="http://www.inkscape.org/namespaces/inkscape"
   xmlns:sodipodi="http://sodipodi.sourceforge.net/DTD/sodipodi-0.dtd"
   xmlns="http://www.w3.org/2000/svg"
   xmlns:svg="http://www.w3.org/2000/svg">
   <defs id="defs8" />
   <sodipodi:namedview id="namedview6" pagecolor="#ffffff" bordercolor="#666666" borderopacity="1.0" inkscape:pageshadow="2" inkscape:pageopacity="0.0" inkscape:pagecheckerboard="0" showgrid="true" inkscape:snap-page="true" inkscape:zoom="28" inkscape:cx="8.8392857" inkscape:cy="11.964286" inkscape:window-width="1920" inkscape:window-height="1043" inkscape:window-x="1920" inkscape:window-y="0" inkscape:window-maximized="1" inkscape:current-layer="svg4">
      <inkscape:grid type="xygrid" id="grid821" />
   </sodipodi:namedview>
   <path id="path917" style="fill:#808080;fill-rule:evenodd;stroke-width:0.5;stroke-linecap:round;stroke-linejoin:round;fill-opacity:1" d="m 12,4.0000001 a 15,15 0 0 0 -10.078125,3.921875 l 0.703125,0.703125 a 14,14 0 0 1 9.375,-3.625 14,14 0 0 1 9.384766,3.6152344 l 0.710937,-0.7109375 a 15,15 0 0 0 -10.095703,-3.9042969 z m 0,3 a 12,12 0 0 0 -7.9453125,3.0546879 l 0.6972656,0.697265 a 11,11 0 0 1 7.2480469,-2.7519529 11,11 0 0 1 7.259766,2.7402349 l 0.708984,-0.708985 a 12,12 0 0 0 -7.96875,-3.0312499 z m 0,2.9999999 a 9,9 0 0 0 -5.8398438,2.160156 l 0.7324219,0.732422 a 8,8 0 0 1 5.1074219,-1.892578 8,8 0 0 1 5.132812,1.867188 l 0.708985,-0.708985 a 9,9 0 0 0 -5.841797,-2.158203 z m 0,3 a 6,6 0 0 0 -3.7109375,1.289062 l 0.7226563,0.722657 a 5,5 0 0 1 2.9882812,-1.011719 5,5 0 0 1 2.998047,1.001953 l 0.710937,-0.710937 a 6,6 0 0 0 -3.708984,-1.291016 z" />
   <circle style="fill:#808080;fill-rule:evenodd;stroke-width:0.5;stroke-linecap:round;stroke-linejoin:round;fill-opacity:1" id="path1260" cx="12" cy="19" r="2" />
</svg>

<svg height="24" width="24" xmlns="http://www.w3.org/2000/svg"><path style="fill:gray;stroke-width:.5;stroke-linecap:round;stroke-linejoin:round;fill-opacity:1" d="M12 4A15 15 0 0 0 1.922 7.922l.703.703A14 14 0 0 1 12 5a14 14 0 0 1 9.385 3.615l.71-.71A15 15 0 0 0 12 4zm0 3a12 12 0 0 0-7.945 3.055l.697.697A11 11 0 0 1 12 8a11 11 0 0 1 7.26 2.74l.709-.709A12 12 0 0 0 12 7zm0 3a9 9 0 0 0-5.84 2.16l.733.733A8 8 0 0 1 12 11a8 8 0 0 1 5.133 1.867l.709-.709A9 9 0 0 0 12 10zm0 3a6 6 0 0 0-3.71 1.29l.722.722A5 5 0 0 1 12 14a5 5 0 0 1 2.998 1.002l.711-.711A6 6 0 0 0 12 13z"/><circle style="fill:gray;stroke-width:.5;stroke-linecap:round;stroke-linejoin:round;fill-opacity:1" cx="12" cy="19" r="2"/></svg>
